swiss/communes/0087.svg

<?xml version="1.0" encoding="UTF-8" standalone="no"?>
<!-- Created with Inkscape (http://www.inkscape.org/) -->
<svg
   xmlns:svg="http://www.w3.org/2000/svg"
   xmlns="http://www.w3.org/2000/svg"
   version="1.0"
   width="196.19008"
   height="229.80609"
   id="svg2780">
  <defs
     id="defs2782" />
  <g
     transform="translate(-25.920705,-811.77532)"
     id="layer1">
    <path
       d="M 26.920705,812.77532 L 30.45143,961.11415 C 32.97337,1067.0705 215.05811,1067.0705 217.58006,961.11415 L 221.11079,812.77532 L 26.920705,812.77532 z"
       id="path3282"
       style="fill:#ffffff;fill-opacity:1;fill-rule:evenodd;stroke:none;stroke-width:1.99999988;stroke-linecap:butt;stroke-miterlimit:4;stroke-dashoffset:0;stroke-opacity:1" />
    <path
       d="M 26.90625,8.4375 L 28.40625,70.875 L 219.625,70.875 L 221.125,8.4375 L 26.90625,8.4375 z"
       transform="translate(0,804.33069)"
       id="rect6971"
       style="opacity:1;color:#000000;fill:#de3921;fill-opacity:1;fill-rule:evenodd;stroke:#000000;stroke-width:1.00000012px;stroke-linecap:butt;stroke-linejoin:miter;marker:none;marker-start:none;marker-mid:none;marker-end:none;stroke-miterlimit:4;stroke-dasharray:none;stroke-dashoffset:0;stroke-opacity:1;visibility:visible;display:inline;overflow:visible;enable-background:accumulate" />
    <path
       d="M 124.03125,70.875 L 30.90625,163.96875 C 32.492988,179.04325 37.889938,191.76605 45.90625,202.125 L 124.03125,124.03125 L 202.125,202.125 C 210.14131,191.76605 215.53826,179.04325 217.125,163.96875 L 124.03125,70.875 z"
       transform="translate(0,804.33069)"
       id="path6457"
       style="fill:#000000;fill-opacity:1;fill-rule:evenodd;stroke:none;stroke-width:1px;stroke-linecap:butt;stroke-linejoin:miter;stroke-opacity:1" />
    <path
       d="M 118.1095,944.33069 L 118.1095,966.14319 L 96.203249,966.14319 L 96.203249,977.98694 L 118.1095,977.98694 L 118.1095,996.48694 L 96.203249,996.48694 L 96.203249,1008.3619 L 118.1095,1008.3619 L 118.1095,1030.1432 L 129.95325,1030.1432 L 129.95325,1008.3619 L 151.82825,1008.3619 L 151.82825,996.48694 L 129.95325,996.48694 L 129.95325,977.98694 L 151.82825,977.98694 L 151.82825,966.14319 L 129.95325,966.14319 L 129.95325,944.33069 L 118.1095,944.33069 z"
       id="rect6976"
       style="opacity:1;color:#000000;fill:#de3921;fill-opacity:1;fill-rule:evenodd;stroke:#000000;stroke-width:1.00000012px;stroke-linecap:butt;stroke-linejoin:miter;marker:none;marker-start:none;marker-mid:none;marker-end:none;stroke-miterlimit:4;stroke-dasharray:none;stroke-dashoffset:0;stroke-opacity:1;visibility:visible;display:inline;overflow:visible;enable-background:accumulate" />
    <path
       d="M 26.920705,812.77532 L 30.45143,961.11415 C 32.97337,1067.0705 215.05811,1067.0705 217.58006,961.11415 L 221.11079,812.77532 L 26.920705,812.77532 z"
       id="path7285"
       style="fill:none;fill-opacity:1;fill-rule:evenodd;stroke:#000000;stroke-width:1.99999988;stroke-linecap:butt;stroke-miterlimit:4;stroke-dashoffset:0;stroke-opacity:1" />
  </g>
</svg>

<svg xmlns="http://www.w3.org/2000/svg" version="1.0" width="196.19" height="229.806"><path d="m26.92 812.775 3.531 148.34c2.522 105.956 184.607 105.956 187.13 0l3.53-148.34H26.92z" style="fill:#fff;fill-opacity:1;fill-rule:evenodd;stroke:none;stroke-width:1.99999988;stroke-linecap:butt;stroke-miterlimit:4;stroke-dashoffset:0;stroke-opacity:1" transform="translate(-25.92 -811.775)"/><path d="m26.906 8.438 1.5 62.437h191.219l1.5-62.438H26.906z" transform="translate(-25.92 -7.445)" style="opacity:1;color:#000;fill:#de3921;fill-opacity:1;fill-rule:evenodd;stroke:#000;stroke-width:1.00000012px;stroke-linecap:butt;stroke-linejoin:miter;marker:none;marker-start:none;marker-mid:none;marker-end:none;stroke-miterlimit:4;stroke-dasharray:none;stroke-dashoffset:0;stroke-opacity:1;visibility:visible;display:inline;overflow:visible;enable-background:accumulate"/><path d="m124.031 70.875-93.125 93.094c1.587 15.074 6.984 27.797 15 38.156l78.125-78.094 78.094 78.094c8.016-10.359 13.413-23.082 15-38.156l-93.094-93.094z" transform="translate(-25.92 -7.445)" style="fill:#000;fill-opacity:1;fill-rule:evenodd;stroke:none;stroke-width:1px;stroke-linecap:butt;stroke-linejoin:miter;stroke-opacity:1"/><path d="M118.11 944.33v21.813H96.203v11.844h21.906v18.5H96.203v11.875h21.906v21.781h11.844v-21.781h21.875v-11.875h-21.875v-18.5h21.875v-11.844h-21.875v-21.812H118.11z" style="opacity:1;color:#000;fill:#de3921;fill-opacity:1;fill-rule:evenodd;stroke:#000;stroke-width:1.00000012px;stroke-linecap:butt;stroke-linejoin:miter;marker:none;marker-start:none;marker-mid:none;marker-end:none;stroke-miterlimit:4;stroke-dasharray:none;stroke-dashoffset:0;stroke-opacity:1;visibility:visible;display:inline;overflow:visible;enable-background:accumulate" transform="translate(-25.92 -811.775)"/><path d="m26.92 812.775 3.531 148.34c2.522 105.956 184.607 105.956 187.13 0l3.53-148.34H26.92z" style="fill:none;fill-opacity:1;fill-rule:evenodd;stroke:#000;stroke-width:1.99999988;stroke-linecap:butt;stroke-miterlimit:4;stroke-dashoffset:0;stroke-opacity:1" transform="translate(-25.92 -811.775)"/></svg>
